!!!OTL: 1824. Kniereiter. / [Einem Kinde, das man auf den Knien schaukelt, vorzusingen.]
!!!ARE: Europa, Mitteleuropa, Deutschland, Thueringen
!!!SCT: E1824
!!!TXL: @@DE
!!!YEM: Copyright 1995, estate of Helmut Schaffrath.
**kern	**text
*ICvox	*
*M2/4	*
*k[]	*
*C:	*
=1	=1
!LO:TX:a:t=Thüringiſch.	!
{8cc	Schak-
8cc	-ke
8dd	ſchal-
8dd	-ke
=2	=2
8cc	Rei-
8cc	-ter-
4g}	-pferd,
=3	=3
{8cc	's_Pferd
8cc	iſt
8dd	nicht
8dd	drei
=4	=4
8cc	Hel-
8cc	-ler
4g}	werth.
=5||	=5||
{8cc	Macht
8cc	das
8dd	Pferd-
8dd	-chen
=6	=6
8ee	trib,
8ee	trib,
8dd	trab,
8r}	.
=7	=7
{8.cc^^	fällt
16g	der
8g	klei-
8e	-ne
=8	=8
8.d	Jun-
16c	-ge
8c	ab.
8r}	.
==	==
!!!AGN: Kinder -, Schaukel -, Reiter - Lied
!!!ONB: ESAC (Essen Associative Code) Database: ERK3
!!!AMT: simple duple
!!!AIN: vox
!!!EED: Helmut Schaffrath
!!!EEV: 1.0
!!!GTL: Einige Kinderlieder. b) Koselieder in der Kinderstube.
!!!URL-scan: https://rosdok.uni-rostock.de/mcrviewer/recordIdentifier/rosdok_ppn745177999/iview2/phys_0590.iview2?x=-4.404412318551749&y=290.15296810120344&scale=0.6456904138606623&rotation=0&layout=singlePageLayout
!!!ENC: Anna Maria Matuszewska
!!!EEV: 2025/09/01
*-	*-
